!!!COM: Hugo Wolf
!!!CNT: Deutscher
!!!TXO: Deutsche 
!!!OTL: Der Knabe und das Immlein
!!!ONM: No. 2
!!!ODT: 1888/
!!!LYR: Moericke
!!!ENC: Brian Bice
!!!YOR: 65 Songs for voice and piano, International Music Company, 1960
!!NB: Vocal melody and text only encoded.
**kern	**silbe
*clefG2	*
*k[b-e-]	*
*M4/4	*
=0	=0
2.r	.
{4dd	{Im
=1	=1
4dd	Wein-
4ee-	-berg
4b-	auf
4cc	der
=2	=2
2cc#	Ho2-
4cc#	-he
4cc#	ein
=3	=3
4dd	Ha2us-
4ee-	-lein
4b-	steht
4ccn	so
=4	=4
4.g	win-
8cc#	-de-
4.cc#}	-bang;}
8r	.
=5	=5
{4ccn	{hat
8dd-	we-
8dd-	-der
4an	Tu2r
4b-	noch
=6	=6
2cc-	Fen-
4cc-	-ster,
4cc-	die
=7	=7
(4.b-	Wei-
8e-)	-le
4e-	wird
4d	ihm
=8	=8
c#q	lang.
2a}	|}
4r	.
{4dd	{Und
=9	=9
4dd	ist
4ee-	der
4b-	Tag
4cc	so
=10	=10
2cc#	schwu2-
4cc#	-le,
4cc#	sind
=11	=11
(4dd	all'
8ff)	|
8ee-	ver-
4b-	-stummt
4ccn	die
=12	=12
4.g	Vo2-
8cc#	-ge-
4cc#}	-lein,}
4r	.
=13	=13
{4ccn	{summt
8ccn	an
8ccn	der
4f	Son-
(8g	-nen-
8a-)	|
=14	=14
2b-	-blu-
4b-	-me
4ee-	ein
=15	=15
4dd	Imm-
4g	-lein
(4b-	ganz
8a-)	|
8g	al-
=16	=16
2cc#}	-lein.}
2r	.
=19	=19
2r	.
4r	.
{4d	{"Mein
=20	=20
*k[f#]	*
4.d	Lieb
8b	hat
4b	ei-
4a	-nen
=21	=21
2g	Gar-
4g	-ten,
4f#	da
=22	=22
8f#	steht
8e	ein
8f#	hu2b-
8g	-sches
4.cc	Im-
8cc	-men-
=23	=23
2b}	-haus:}
2r	.
=24	=24
{4dd	{kommst
4dd	du
4dd	da-
8cc	-her
8b	ge-
=25	=25
2ee	-flo-
4a	-gen?
4r	.
=26	=26
4ee	schickt
8ee	sie
8ee	dich
4ff	nach
4ee	mir
=27	=27
[2ff	aus?"
8ff]}	|}
8r	.
8r	.
{8dd	{"O
=28	=28
4gg	nein,
8r	.
8dd	du
(8b	fei-
8dd)	|
(aq	-ner
8g	|
8f#)	|
=29	=29
8.e	Kna-
16ee	|
4ee	-be,
4r	.
4ee	es
=30	=30
4a	hiess
4ee	mich
4dd	nie-
4a	-mand
=31	=31
(8b	Bo-
8cc#)	|
(8dd	-ten
8ee)	|
2dd}	gehn;}
=32	=32
8r	.
{8dd	{dies
4dd	Kind
(8cc	weiss
8ee-)	|
8dd	nichts
8cc	von
=33	=33
([4b	Lie-
8.b]	|
16g)	|
4g	-ben,
4r	.
=34	=34
8r	.
8f#	hat
8f#	dich
8b	noich
4.b#	kaum
8cc#	ge-
=35	=35
[2ff#	-sehn.
8ff#]}	|}
8r	.
{4bn	{Was
=36	=36
4.b	wu2ss-
8b	-ten
4b	auch
4a	die
=37	=37
2g	Ma2d-
8g	-chen,
8r	.
8g	wenn
8f#	sie
=38	=38
4e	kaum
8f#	aus
8g	der
4.cc	schu-
8cc	-le
=39	=39
2b}	sind!}
4r	.
{4dd	{Dein
=40	=40
4dd	herz-
8cc#	-al-
8b	-ler-
4dd	-lieb-
(8ccn	-stes
8b)	|
=41	=41
2ee	Scha2tz-
4a	-chen
4r	.
=42	=42
4ee	ist
8ee	noch
8ee	ein
4.ff#	Mut-
8ee	-ter-
=43	=43
[2.ff#	-kind.
8ff#]}	|}
8r	.
=44	=44
8r	.
{8dd	{Ich
8gg	bring'
8dd	ihm
(8b	Wachs
8dd)	|
(aq	und
8g	|
8f#)	|
=45	=45
(8e.	Ho-
16ee)	|
4ee	-nig;
4r	.
4ee	a-
=46	=46
4a	-de!
4r	.
4r	.
8r	.
8cc#	ich
=47	=47
8b	hab'
8cc#	ein
8dd	gan-
8ee	-zes
2dd}	Pfund;}
=48	=48
4r	.
8r	.
{8ee-	{wie
8dd	wird
8a	das
8bn	Scha2tz-
8cc	-chen
=49	=49
(8.b	la-
16gg)	|
[4gg	-chen,
8gg]	|
8r	.
4gg	ihm
=50	=50
[2ff#	wa2s-
8ff#]	|
8g#	-sert
8a#	schon
8cc#	der
=51	=51
[2ff#	Mund."
8ff#]}	|}
8r	.
{4b	{"Ach,
=52	=52
4.b	woll-
8b	-test
4b	du
4a	ihr
=53	=53
2g	sa-
4g	-gen,
4f#	ich
=54	=54
8f#	wu2ss-
8e	-te,
8f#	was
8g	viel
4.cc	su2-
8cc	-sser
=55	=55
2.b}	ist:}
{4dd	{nichts
=56	=56
4gg	Lieb-
4dd	-li-
(8b	-chers
8dd)	|
(8a	auf
8g)	|
=57	=57
2fn	Er-
4e	-den,
4e-	als
=58	=58
4d	wenn
4g	man
4.b-	herzt
8g	und
=59	=59
2ee-}	ku2sst!}
4r	.
{4dd	{Nichts
=60	=60
4.gg	Lieb-
8ff#	-li-
(8aa	-chers
8gg)	|
(8ff#	auf
8ffn)	|
=61	=61
(4ee	Er-
4gg)	|
4ff#	-den,
4ee	als
=62	=62
8dd	wenn
8b	man
(12dd	herzt
12cc	|
[12b	|
4b])	|
(8.a	und
16g)	|
=63	=63
2g}	ku2sst!"}
2r	.
*-	*-
